X: 432
M: C
L: 1/16
K: D
V: 1
|: B2 |\
|: b2 |\
af3Tf3e Tf3ef2b2 | af3 Tf3d Te3de2b2 |\
af3Tf3e d3eTf3e | (dcBA d3)F TE3DE2 :|
|: B2 |\
V: 2 clef=bass middle=d
z2 |\
d4d4 d4d4 | d4d4 e4e4 |\
d4d4 d4d4 | d4d4 e4e2 :|\
|: z2 |\
d4d4 d4d4 |
d4d4 d4d4 |\
d4d4 d4d4 | d4d4 A4A2 :|\
|: z2 |\
d4d4 d4d4 | d4d4 A4A4 |\
d4d4 d4d4 | d4d4 A4A2 :|\
|: z2 |\
d4d4 d4d4 | d4d4 d4d4 |\
d4d4 d4d4 | d4d4 e4 e2 :|


